src/img/logo.svg

<svg width="162" height="153" viewBox="0 0 162 153" fill="none" xmlns="http://www.w3.org/2000/svg">
<path d="M152.922 0.0429688H153.801L151.164 2.15234H151.691L153.625 1.09766H154.504L154.416 1.44922C152.658 3.96875 151.018 5.96094 149.494 7.42578L149.406 7.77734C151.047 7.77734 154.006 8.01172 158.283 8.48047L158.107 9.18359H154.592L154.504 9.88672H157.58L157.492 10.5898C154.094 11.9961 148.938 13.5195 142.023 15.1602C139.152 19.1445 130.363 25.707 115.656 34.8477L100.803 46.8008V47.1523C130.744 38.9492 148.967 34.8477 155.471 34.8477H156.789C159.484 34.8477 160.832 35.7852 160.832 37.6602C160.832 37.8945 160.803 38.1289 160.744 38.3633C160.979 38.3633 161.096 38.5098 161.096 38.8027V39.0664C160.861 40.4141 157.111 43.3438 149.846 47.8555C146.564 49.5547 137.453 56.2344 122.512 67.8945C110.852 78.9102 85.5977 98.3633 46.75 126.254C33.5078 134.633 26.8574 138.969 26.7988 139.262L26.623 140.316H25.7441L25.832 139.613C11.1836 148.051 2.92188 152.27 1.04688 152.27C1.10547 152.094 2.80469 150.922 6.14453 148.754H5.61719C3.21484 150.16 1.63281 150.863 0.871094 150.863V150.512C0.929688 150.102 2.92188 147.992 6.84766 144.184C4.62109 144.184 3.39062 143.48 3.15625 142.074C1.80859 141.43 1.13477 140.961 1.13477 140.668C2.36523 140.316 3.00977 139.965 3.06836 139.613L3.15625 139.262H2.18945L2.36523 138.559C4.00586 138.559 5.23633 137.387 6.05664 135.043C6.93555 135.043 8.60547 133.871 11.0664 131.527C10.8906 127.484 10.8027 123.734 10.8027 120.277C10.8027 113.773 11.125 108.383 11.7695 104.105C11.5938 103.754 11.5059 103.461 11.5059 103.227V103.051H11.9453V102.963C11.9453 102.787 11.8281 102.699 11.5938 102.699L12.2969 100.59C15.2266 82.0742 20.207 63.6758 27.2383 45.3945V45.3066C27.2383 45.1309 27.1211 45.043 26.8867 45.043L30.7539 34.4961C28.3516 34.1445 26.5938 33.0898 25.4805 31.332C25.4805 31.0977 25.3926 30.7461 25.2168 30.2773C25.9785 28.7539 26.7402 27.6992 27.502 27.1133C26.8574 25.8242 26.5352 25.0332 26.5352 24.7402V24.6523C26.5938 24.3594 28.3516 22.6016 31.8086 19.3789C32.043 17.9141 35.9688 16.625 43.5859 15.5117C44.875 11.1758 46.6621 7.42578 48.9473 4.26172L51.1445 4.61328H51.584C51.7012 3.67578 52.0527 3.20703 52.6387 3.20703H54.9238C55.2754 3.20703 56.3301 4.14453 58.0879 6.01953C59.0254 7.19141 59.8164 7.77734 60.4609 7.77734V7.86523C60.4609 8.27539 60.8125 8.83203 61.5156 9.53516C61.1641 10.0039 60.959 10.3555 60.9004 10.5898C61.3105 10.5898 61.6914 10.9414 62.043 11.6445L61.7793 13.4023C69.1621 12.5234 79.416 11.8203 92.541 11.293L92.4531 11.9961C92.1016 11.9961 90.4316 12.2305 87.4434 12.6992L87.3555 13.0508H88.6738C103.439 10.707 119.846 8.83203 137.893 7.42578L152.922 0.0429688ZM49.2988 52.8652C56.8574 48.4121 67.8438 42.9043 82.2578 36.3418L95.2656 30.4531C84.3086 32.0352 71.125 33.6172 55.7148 35.1992C54.3672 37.4844 52.2285 43.373 49.2988 52.8652ZM45.0801 77.3867L38.9277 105.16C38.5762 105.16 38.4004 105.277 38.4004 105.512L39.1914 105.863C51.3203 93.7344 67.1406 80.375 86.6523 65.7852C87.5898 65.7852 88.5859 65.1992 89.6406 64.0273H89.2012L45.6953 76.332C45.2852 76.8008 45.0801 77.1523 45.0801 77.3867Z" fill="black"/>
</svg>

<svg width="162" height="153" fill="none" xmlns="http://www.w3.org/2000/svg"><path d="M152.922.043h.879l-2.637 2.11h.527l1.934-1.055h.879l-.088.351c-1.758 2.52-3.398 4.512-4.922 5.977l-.088.351c1.641 0 4.6.235 8.877.703l-.176.704h-3.515l-.088.703h3.076l-.088.703c-3.398 1.406-8.554 2.93-15.469 4.57-2.871 3.985-11.66 10.547-26.367 19.688L100.803 46.8v.351c29.941-8.203 48.164-12.304 54.668-12.304h1.318c2.695 0 4.043.937 4.043 2.812 0 .235-.029.469-.088.703.235 0 .352.147.352.44v.263c-.235 1.348-3.985 4.278-11.25 8.79-3.282 1.699-12.393 8.378-27.334 20.038-11.66 11.016-36.914 30.47-75.762 58.36-13.242 8.379-19.893 12.715-19.951 13.008l-.176 1.054h-.879l.088-.703c-14.648 8.438-22.91 12.657-24.785 12.657.058-.176 1.758-1.348 5.098-3.516h-.528c-2.402 1.406-3.984 2.109-4.746 2.109v-.351c.059-.41 2.05-2.52 5.977-6.328-2.227 0-3.457-.704-3.692-2.11-1.347-.644-2.021-1.113-2.021-1.406 1.23-.352 1.875-.703 1.933-1.055l.088-.351H2.19l.176-.703c1.64 0 2.871-1.172 3.692-3.516.879 0 2.548-1.172 5.01-3.516a260.156 260.156 0 0 1-.264-11.25c0-6.504.322-11.894.966-16.172-.175-.351-.263-.644-.263-.878v-.176h.44v-.088c0-.176-.118-.264-.352-.264l.703-2.109c2.93-18.516 7.91-36.914 14.941-55.196v-.087c0-.176-.117-.264-.351-.264l3.867-10.547c-2.402-.352-4.16-1.406-5.274-3.164 0-.234-.087-.586-.263-1.055.762-1.523 1.523-2.578 2.285-3.164-.645-1.289-.967-2.08-.967-2.373v-.088c.059-.293 1.817-2.05 5.274-5.273.234-1.465 4.16-2.754 11.777-3.867 1.289-4.336 3.076-8.086 5.361-11.25l2.197.351h.44c.117-.937.469-1.406 1.055-1.406h2.285c.351 0 1.406.938 3.164 2.813.937 1.171 1.728 1.757 2.373 1.757v.088c0 .41.352.967 1.055 1.67-.352.469-.557.82-.616 1.055.41 0 .791.351 1.143 1.055l-.264 1.757c7.383-.879 17.637-1.582 30.762-2.109l-.088.703c-.351 0-2.021.234-5.01.703l-.087.352h1.318c14.765-2.344 31.172-4.219 49.219-5.625L152.922.043ZM49.299 52.865c7.558-4.453 18.545-9.96 32.959-16.523l13.008-5.889c-10.957 1.582-24.141 3.164-39.551 4.746-1.348 2.285-3.487 8.174-6.416 17.666ZM45.08 77.387l-6.152 27.773c-.352 0-.528.117-.528.352l.791.351c12.13-12.129 27.95-25.488 47.461-40.078.938 0 1.934-.586 2.989-1.758h-.44L45.695 76.332c-.41.469-.615.82-.615 1.055Z" fill="#000"/></svg>
